X: 1
T:Ask My Father
R:slide
Z:id:hn-slide-33
M:6/8
K:Dmix
A2G|:F2D ~D3|A2G F2D|~A3 B2G|A3 A2G|
F2D ~D3|A2G F2D|G2B A2F|1 G3 A2G:|2 G3 G2g||
|:f2d d2e|f2d cAG|~A3 B2G|A3 A2g|
f2d d2e|1 f2d c2A|G2B A2F|G3 G2g:|2 f2g a2g|f2d c2A|G3||
